src/main/resources/icons/DvcsImplIcons/icons/currentBranchLabel.svg

<svg xmlns="http://www.w3.org/2000/svg" width="16" height="16" viewBox="0 0 16 16">
  <path fill="#F4AF3D" fill-opacity=".7" fill-rule="evenodd" d="M7,2 L14,9 L9,14 L2,7 L2,2 L7,2 Z M6.67928902,3.07071098 L3,3 L3.07071098,6.67928902 L8.98878277,12.5973608 L12.5973608,8.98878277 L6.67928902,3.07071098 Z M4,5.00062933 C4,4.44801794 4.44773617,4 5,4 C5.55226383,4 6,4.44801794 6,5.00062933 C6,5.55324072 5.55226383,6.00125865 5,6.00125865 C4.44773617,6.00125865 4,5.55324072 4,5.00062933 Z"/>
</svg>

<svg xmlns="http://www.w3.org/2000/svg" width="16" height="16" viewBox="0 0 16 16"><rect id="frame" width="16" height="16" fill="none"/><path fill="#F4AF3D" fill-opacity=".7" fill-rule="evenodd" d="M7 2l7 7-5 5-7-7V2h5zm-.32 1.07L3 3l.07 3.68 5.919 5.917 3.608-3.608L6.68 3.07zM4 5a1 1 0 1 1 2 0 1 1 0 0 1-2 0z"/></svg>
